modules/hawcons-filled/icons/icon-77-document-locked.svg

<?xml version="1.0" encoding="UTF-8" standalone="no"?>
<svg width="32px" height="32px" viewBox="0 0 32 32" version="1.1" xmlns="http://www.w3.org/2000/svg" xmlns:xlink="http://www.w3.org/1999/xlink" xmlns:sketch="http://www.bohemiancoding.com/sketch/ns">
    <!-- Generator: Sketch 3.0.3 (7891) - http://www.bohemiancoding.com/sketch -->
    <title>icon 77 document locked</title>
    <desc>Created with Sketch.</desc>
    <defs></defs>
    <g id="Page-1" stroke="none" stroke-width="1" fill="none" fill-rule="evenodd" sketch:type="MSPage">
        <g id="icon-77-document-locked" sketch:type="MSArtboardGroup" fill="#929292">
            <path d="M26,10 L21.0059191,10 C19.8980806,10 19,9.11329365 19,8.00189865 L19,2 L9.0085302,2 C7.8992496,2 7,2.89833832 7,4.00732994 L7,26.9926701 C7,28.1012878 7.89092539,29 8.99742191,29 L19,29 L19,24.5016756 C19,23.8481232 19.4172141,23.2932222 20,23.086445 L20,22.5026852 C20,20.0236492 22.0147186,18 24.5,18 C25.0256277,18 25.5305751,18.0905416 26,18.2569181 L26,10 L26,10 Z M20,7.99707067 C20,8.55097324 20.4509752,9 20.990778,9 L26,9 L20,2 L20,7.99707067 L20,7.99707067 Z M21,22.5054058 C21,20.5676804 22.5670034,19 24.5,19 C26.4290634,19 28,20.5694236 28,22.5054058 L28,24 C28.5536886,24 29,24.4490268 29,25.0029293 L29,29.9970707 C29,30.5621186 28.553384,31 28.0024554,31 L20.9975446,31 C20.4463114,31 20,30.5509732 20,29.9970707 L20,25.0029293 C20,24.4378814 20.446616,24 20.9975446,24 L21,22.5054058 L21,22.5054058 Z M22,22.5093004 C22,21.1123657 23.1192881,20 24.5,20 C25.8903379,20 27,21.123452 27,22.5093004 L27,24 L22,24 L22,22.5093004 L22,22.5093004 Z" id="document-locked" sketch:type="MSShapeGroup"></path>
        </g>
    </g>
</svg>

<svg width="32" height="32" xmlns="http://www.w3.org/2000/svg"><path d="M26 10h-4.994A1.997 1.997 0 0 1 19 8.002V2H9.009C7.899 2 7 2.898 7 4.007v22.986A2 2 0 0 0 8.997 29H19v-4.498c0-.654.417-1.209 1-1.416v-.583a4.506 4.506 0 0 1 6-4.246V10zm-6-2.003c0 .554.451 1.003.99 1.003H26l-6-7v5.997zm1 14.508A3.502 3.502 0 0 1 24.5 19c1.93 0 3.5 1.57 3.5 3.505V24a1 1 0 0 1 1 1.003v4.994A.993.993 0 0 1 28.002 31h-7.004A1 1 0 0 1 20 29.997v-4.994A.993.993 0 0 1 20.998 24L21 22.505zm1 .004C22 21.112 23.12 20 24.5 20c1.39 0 2.5 1.123 2.5 2.51V24h-5v-1.49z" fill="#929292" fill-rule="evenodd"/></svg>
